X:5598
T:Fr d' Muatter - Walzer/Waltz/Valse
B:"Grossrussbacher Auslese 1990", D.Draxler, H.Fritz, N.Hauer, E.Schmidt, M.Walcher, sterreichisches Volksliedwerk & Volksliedwerke fr Niedersterreich und Wien, Wien 1990
N:in the book in D - Walzer/Waltz/Valse
C:Trio in G
S:Volker Schbitz
N:Das Trio lasse ich weg
Z:abc transcription Simon Wascher
N:please mail errors to simon.wascher@chello.at
M:3/4
L:1/4
K:G
D|G2D|B2G|d3|dcB|
A>cF|FBA|G>BD|DzD|
G2D|B2G|d3|dcB|
A>cF|FBA|GzG/G/|Gz:|
|:B/c/|BzA|D2A/B/|AzG|D2F/G/|
GzF|DzF|G2A|B2B/c/|
BzA|D2A/B/|AzG|D2F/G/|
GzF|B2A|G3-|G"Dacapo"z:|
K:C
|:"Trio"G|G3|EzE|E3|CzC|
B,2D|F2A|G3|czA|
G3|EzE|E3|CzC|
B,DF|AGB,|C3-|1CzG:|2CzD|]
